content/sets-and-functions/images/partition.svg

<svg height="128.976pt" viewBox="0 0 259.364 128.976" width="259.364pt" xmlns="http://www.w3.org/2000/svg" xmlns:xlink="http://www.w3.org/1999/xlink"><clipPath id="a"><path d="m0 0h259v128.976562h-259zm0 0"/></clipPath><clipPath id="b"><path d="m77 51h97v77.976562h-97zm0 0"/></clipPath><symbol id="c" overflow="visible"><path d="m9.109375-9.96875c0-.125-.09375-.125-.125-.125-.0625 0-.078125.015625-.25.21875-.078125.109375-.671875.859375-.6875.859375-.46875-.921875-1.421875-1.078125-2.015625-1.078125-1.828125 0-3.484375 1.65625-3.484375 3.28125 0 1.078125.65625 1.703125 1.359375 1.953125.15625.046875 1 .28125 1.421875.390625.734375.1875.921875.25 1.234375.5625.046875.078125.34375.40625.34375 1.078125 0 1.34375-1.234375 2.71875-2.671875 2.71875-1.171875 0-2.484375-.5-2.484375-2.109375 0-.28125.0625-.625.09375-.765625 0-.046875.015625-.109375.015625-.140625 0-.0625-.015625-.125-.140625-.125s-.140625.015625-.203125.265625l-.734375 2.9375c0 .015625-.046875.203125-.046875.21875 0 .125.109375.125.140625.125.0625 0 .078125-.015625.25-.21875l.65625-.859375c.34375.515625 1.09375 1.078125 2.421875 1.078125 1.84375 0 3.546875-1.78125 3.546875-3.578125 0-.609375-.140625-1.140625-.6875-1.671875-.3125-.296875-.5625-.375-1.890625-.71875-.953125-.25-1.078125-.296875-1.34375-.53125-.25-.234375-.421875-.578125-.421875-1.0625 0-1.21875 1.21875-2.4375 2.578125-2.4375 1.40625 0 2.0625.859375 2.0625 2.21875 0 .375-.078125.75-.078125.8125 0 .125.125.125.171875.125.125 0 .140625-.03125.1875-.265625zm0 0"/></symbol><symbol id="d" overflow="visible"><path d="m2.9375-6.375c0-.25 0-.265625-.234375-.265625-.625.640625-1.5.640625-1.8125.640625v.3125c.203125 0 .78125 0 1.296875-.265625v5.171875c0 .359375-.03125.46875-.921875.46875h-.3125v.3125c.34375-.03125 1.203125-.03125 1.609375-.03125.390625 0 1.265625 0 1.609375.03125v-.3125h-.3125c-.90625 0-.921875-.109375-.921875-.46875zm0 0"/></symbol><symbol id="e" overflow="visible"><path d="m1.265625-.765625 1.0625-1.03125c1.546875-1.375 2.140625-1.90625 2.140625-2.90625 0-1.140625-.890625-1.9375-2.109375-1.9375-1.125 0-1.859375.921875-1.859375 1.8125 0 .546875.5.546875.53125.546875.171875 0 .515625-.109375.515625-.53125 0-.25-.1875-.515625-.53125-.515625-.078125 0-.09375 0-.125.015625.21875-.65625.765625-1.015625 1.34375-1.015625.90625 0 1.328125.8125 1.328125 1.625 0 .796875-.484375 1.578125-1.046875 2.203125l-1.90625 2.125c-.109375.109375-.109375.140625-.109375.375h3.703125l.265625-1.734375h-.234375c-.0625.296875-.125.734375-.234375.890625-.0625.078125-.71875.078125-.9375.078125zm0 0"/></symbol><symbol id="f" overflow="visible"><path d="m2.890625-3.515625c.8125-.265625 1.390625-.953125 1.390625-1.75 0-.8125-.875-1.375-1.828125-1.375-1 0-1.765625.59375-1.765625 1.359375 0 .328125.21875.515625.515625.515625s.5-.21875.5-.515625c0-.484375-.46875-.484375-.609375-.484375.296875-.5.953125-.625 1.3125-.625.421875 0 .96875.21875.96875 1.109375 0 .125-.03125.703125-.28125 1.140625-.296875.484375-.640625.515625-.890625.515625-.078125.015625-.3125.03125-.390625.03125-.078125.015625-.140625.03125-.140625.125 0 .109375.0625.109375.234375.109375h.4375c.8125 0 1.1875.671875 1.1875 1.65625 0 1.359375-.6875 1.640625-1.125 1.640625s-1.1875-.171875-1.53125-.75c.34375.046875.65625-.171875.65625-.546875 0-.359375-.265625-.5625-.546875-.5625-.25 0-.5625.140625-.5625.578125 0 .90625.921875 1.5625 2.015625 1.5625 1.21875 0 2.125-.90625 2.125-1.921875 0-.8125-.640625-1.59375-1.671875-1.8125zm0 0"/></symbol><symbol id="g" overflow="visible"><path d="m2.9375-1.640625v.859375c0 .359375-.03125.46875-.765625.46875h-.203125v.3125c.40625-.03125.921875-.03125 1.34375-.03125s.9375 0 1.359375.03125v-.3125h-.21875c-.734375 0-.75-.109375-.75-.46875v-.859375h.984375v-.3125h-.984375v-4.53125c0-.203125 0-.265625-.171875-.265625-.078125 0-.109375 0-.1875.125l-3.0625 4.671875v.3125zm.046875-.3125h-2.421875l2.421875-3.71875zm0 0"/></symbol><g clip-path="url(#a)"><path d="m128.971281 640.143438v126.464843h255.875v-126.464843zm0 0" fill="none" stroke="#00008b" stroke-linejoin="round" stroke-miterlimit="10" stroke-width="2" transform="matrix(1 0 0 -1 -126.983 767.62)"/></g><path d="m128.483 672.006719c49.019531 15.683594 89.214844 47.054687 120.585938 94.113281" fill="none" stroke="#00008b" stroke-linejoin="round" stroke-miterlimit="10" stroke-width="2" transform="matrix(1 0 0 -1 -126.983 767.62)"/><g clip-path="url(#b)"><path d="m205.022063 715.100469c58.449218-30.363281 89.957031-55.347656 94.535156-74.957031" fill="none" stroke="#00008b" stroke-linejoin="round" stroke-miterlimit="10" stroke-width="2" transform="matrix(1 0 0 -1 -126.983 767.62)"/></g><path d="m263.772063 680.33875c65.359375 24.507813 105.714843 47.382813 121.074218 68.625" fill="none" stroke="#00008b" stroke-linejoin="round" stroke-miterlimit="10" stroke-width="2" transform="matrix(1 0 0 -1 -126.983 767.62)"/><g fill="#00008b"><use x="30.911" xlink:href="#c" y="41.203"/><use x="39.55" xlink:href="#d" y="43.355"/><use x="75.027" xlink:href="#c" y="99.534"/><use x="83.666" xlink:href="#e" y="101.686"/><use x="152.476" xlink:href="#c" y="31.889"/><use x="161.115" xlink:href="#f" y="34.041"/><use x="204.435" xlink:href="#c" y="98.064"/><use x="213.074" xlink:href="#g" y="100.216"/></g></svg>

<?xml version="1.0" encoding="UTF-8"?>
<svg xmlns="http://www.w3.org/2000/svg" xmlns:xlink="http://www.w3.org/1999/xlink" width="259.364pt" height="128.976pt" viewBox="0 0 259.364 128.976" version="1.1">
<defs>
<g>
<symbol overflow="visible" id="glyph0-0">
<path style="stroke:none;" d=""/>
</symbol>
<symbol overflow="visible" id="glyph0-1">
<path style="stroke:none;" d="M 9.109375 -9.96875 C 9.109375 -10.09375 9.015625 -10.09375 8.984375 -10.09375 C 8.921875 -10.09375 8.90625 -10.078125 8.734375 -9.875 C 8.65625 -9.765625 8.0625 -9.015625 8.046875 -9.015625 C 7.578125 -9.9375 6.625 -10.09375 6.03125 -10.09375 C 4.203125 -10.09375 2.546875 -8.4375 2.546875 -6.8125 C 2.546875 -5.734375 3.203125 -5.109375 3.90625 -4.859375 C 4.0625 -4.8125 4.90625 -4.578125 5.328125 -4.46875 C 6.0625 -4.28125 6.25 -4.21875 6.5625 -3.90625 C 6.609375 -3.828125 6.90625 -3.5 6.90625 -2.828125 C 6.90625 -1.484375 5.671875 -0.109375 4.234375 -0.109375 C 3.0625 -0.109375 1.75 -0.609375 1.75 -2.21875 C 1.75 -2.5 1.8125 -2.84375 1.84375 -2.984375 C 1.84375 -3.03125 1.859375 -3.09375 1.859375 -3.125 C 1.859375 -3.1875 1.84375 -3.25 1.71875 -3.25 C 1.59375 -3.25 1.578125 -3.234375 1.515625 -2.984375 L 0.78125 -0.046875 C 0.78125 -0.03125 0.734375 0.15625 0.734375 0.171875 C 0.734375 0.296875 0.84375 0.296875 0.875 0.296875 C 0.9375 0.296875 0.953125 0.28125 1.125 0.078125 L 1.78125 -0.78125 C 2.125 -0.265625 2.875 0.296875 4.203125 0.296875 C 6.046875 0.296875 7.75 -1.484375 7.75 -3.28125 C 7.75 -3.890625 7.609375 -4.421875 7.0625 -4.953125 C 6.75 -5.25 6.5 -5.328125 5.171875 -5.671875 C 4.21875 -5.921875 4.09375 -5.96875 3.828125 -6.203125 C 3.578125 -6.4375 3.40625 -6.78125 3.40625 -7.265625 C 3.40625 -8.484375 4.625 -9.703125 5.984375 -9.703125 C 7.390625 -9.703125 8.046875 -8.84375 8.046875 -7.484375 C 8.046875 -7.109375 7.96875 -6.734375 7.96875 -6.671875 C 7.96875 -6.546875 8.09375 -6.546875 8.140625 -6.546875 C 8.265625 -6.546875 8.28125 -6.578125 8.328125 -6.8125 Z M 9.109375 -9.96875 "/>
</symbol>
<symbol overflow="visible" id="glyph1-0">
<path style="stroke:none;" d=""/>
</symbol>
<symbol overflow="visible" id="glyph1-1">
<path style="stroke:none;" d="M 2.9375 -6.375 C 2.9375 -6.625 2.9375 -6.640625 2.703125 -6.640625 C 2.078125 -6 1.203125 -6 0.890625 -6 L 0.890625 -5.6875 C 1.09375 -5.6875 1.671875 -5.6875 2.1875 -5.953125 L 2.1875 -0.78125 C 2.1875 -0.421875 2.15625 -0.3125 1.265625 -0.3125 L 0.953125 -0.3125 L 0.953125 0 C 1.296875 -0.03125 2.15625 -0.03125 2.5625 -0.03125 C 2.953125 -0.03125 3.828125 -0.03125 4.171875 0 L 4.171875 -0.3125 L 3.859375 -0.3125 C 2.953125 -0.3125 2.9375 -0.421875 2.9375 -0.78125 Z M 2.9375 -6.375 "/>
</symbol>
<symbol overflow="visible" id="glyph1-2">
<path style="stroke:none;" d="M 1.265625 -0.765625 L 2.328125 -1.796875 C 3.875 -3.171875 4.46875 -3.703125 4.46875 -4.703125 C 4.46875 -5.84375 3.578125 -6.640625 2.359375 -6.640625 C 1.234375 -6.640625 0.5 -5.71875 0.5 -4.828125 C 0.5 -4.28125 1 -4.28125 1.03125 -4.28125 C 1.203125 -4.28125 1.546875 -4.390625 1.546875 -4.8125 C 1.546875 -5.0625 1.359375 -5.328125 1.015625 -5.328125 C 0.9375 -5.328125 0.921875 -5.328125 0.890625 -5.3125 C 1.109375 -5.96875 1.65625 -6.328125 2.234375 -6.328125 C 3.140625 -6.328125 3.5625 -5.515625 3.5625 -4.703125 C 3.5625 -3.90625 3.078125 -3.125 2.515625 -2.5 L 0.609375 -0.375 C 0.5 -0.265625 0.5 -0.234375 0.5 0 L 4.203125 0 L 4.46875 -1.734375 L 4.234375 -1.734375 C 4.171875 -1.4375 4.109375 -1 4 -0.84375 C 3.9375 -0.765625 3.28125 -0.765625 3.0625 -0.765625 Z M 1.265625 -0.765625 "/>
</symbol>
<symbol overflow="visible" id="glyph1-3">
<path style="stroke:none;" d="M 2.890625 -3.515625 C 3.703125 -3.78125 4.28125 -4.46875 4.28125 -5.265625 C 4.28125 -6.078125 3.40625 -6.640625 2.453125 -6.640625 C 1.453125 -6.640625 0.6875 -6.046875 0.6875 -5.28125 C 0.6875 -4.953125 0.90625 -4.765625 1.203125 -4.765625 C 1.5 -4.765625 1.703125 -4.984375 1.703125 -5.28125 C 1.703125 -5.765625 1.234375 -5.765625 1.09375 -5.765625 C 1.390625 -6.265625 2.046875 -6.390625 2.40625 -6.390625 C 2.828125 -6.390625 3.375 -6.171875 3.375 -5.28125 C 3.375 -5.15625 3.34375 -4.578125 3.09375 -4.140625 C 2.796875 -3.65625 2.453125 -3.625 2.203125 -3.625 C 2.125 -3.609375 1.890625 -3.59375 1.8125 -3.59375 C 1.734375 -3.578125 1.671875 -3.5625 1.671875 -3.46875 C 1.671875 -3.359375 1.734375 -3.359375 1.90625 -3.359375 L 2.34375 -3.359375 C 3.15625 -3.359375 3.53125 -2.6875 3.53125 -1.703125 C 3.53125 -0.34375 2.84375 -0.0625 2.40625 -0.0625 C 1.96875 -0.0625 1.21875 -0.234375 0.875 -0.8125 C 1.21875 -0.765625 1.53125 -0.984375 1.53125 -1.359375 C 1.53125 -1.71875 1.265625 -1.921875 0.984375 -1.921875 C 0.734375 -1.921875 0.421875 -1.78125 0.421875 -1.34375 C 0.421875 -0.4375 1.34375 0.21875 2.4375 0.21875 C 3.65625 0.21875 4.5625 -0.6875 4.5625 -1.703125 C 4.5625 -2.515625 3.921875 -3.296875 2.890625 -3.515625 Z M 2.890625 -3.515625 "/>
</symbol>
<symbol overflow="visible" id="glyph1-4">
<path style="stroke:none;" d="M 2.9375 -1.640625 L 2.9375 -0.78125 C 2.9375 -0.421875 2.90625 -0.3125 2.171875 -0.3125 L 1.96875 -0.3125 L 1.96875 0 C 2.375 -0.03125 2.890625 -0.03125 3.3125 -0.03125 C 3.734375 -0.03125 4.25 -0.03125 4.671875 0 L 4.671875 -0.3125 L 4.453125 -0.3125 C 3.71875 -0.3125 3.703125 -0.421875 3.703125 -0.78125 L 3.703125 -1.640625 L 4.6875 -1.640625 L 4.6875 -1.953125 L 3.703125 -1.953125 L 3.703125 -6.484375 C 3.703125 -6.6875 3.703125 -6.75 3.53125 -6.75 C 3.453125 -6.75 3.421875 -6.75 3.34375 -6.625 L 0.28125 -1.953125 L 0.28125 -1.640625 Z M 2.984375 -1.953125 L 0.5625 -1.953125 L 2.984375 -5.671875 Z M 2.984375 -1.953125 "/>
</symbol>
</g>
<clipPath id="clip1">
  <path d="M 0 0 L 259 0 L 259 128.976562 L 0 128.976562 Z M 0 0 "/>
</clipPath>
<clipPath id="clip2">
  <path d="M 77 51 L 174 51 L 174 128.976562 L 77 128.976562 Z M 77 51 "/>
</clipPath>
</defs>
<g id="surface1">
<g clip-path="url(#clip1)" clip-rule="nonzero">
<path style="fill:none;stroke-width:2;stroke-linecap:butt;stroke-linejoin:round;stroke:rgb(0%,0%,54.499817%);stroke-opacity:1;stroke-miterlimit:10;" d="M 128.971281 640.143438 L 128.971281 766.608281 L 384.846281 766.608281 L 384.846281 640.143438 Z M 128.971281 640.143438 " transform="matrix(1,0,0,-1,-126.983,767.62)"/>
</g>
<path style="fill:none;stroke-width:2;stroke-linecap:butt;stroke-linejoin:round;stroke:rgb(0%,0%,54.499817%);stroke-opacity:1;stroke-miterlimit:10;" d="M 128.483 672.006719 C 177.502531 687.690313 217.697844 719.061406 249.068938 766.12 " transform="matrix(1,0,0,-1,-126.983,767.62)"/>
<g clip-path="url(#clip2)" clip-rule="nonzero">
<path style="fill:none;stroke-width:2;stroke-linecap:butt;stroke-linejoin:round;stroke:rgb(0%,0%,54.499817%);stroke-opacity:1;stroke-miterlimit:10;" d="M 205.022063 715.100469 C 263.471281 684.737188 294.979094 659.752813 299.557219 640.143438 " transform="matrix(1,0,0,-1,-126.983,767.62)"/>
</g>
<path style="fill:none;stroke-width:2;stroke-linecap:butt;stroke-linejoin:round;stroke:rgb(0%,0%,54.499817%);stroke-opacity:1;stroke-miterlimit:10;" d="M 263.772063 680.33875 C 329.131438 704.846563 369.486906 727.721563 384.846281 748.96375 " transform="matrix(1,0,0,-1,-126.983,767.62)"/>
<g style="fill:rgb(0%,0%,54.499817%);fill-opacity:1;">
  <use xlink:href="#glyph0-1" x="30.911" y="41.203"/>
</g>
<g style="fill:rgb(0%,0%,54.499817%);fill-opacity:1;">
  <use xlink:href="#glyph1-1" x="39.55" y="43.355"/>
</g>
<g style="fill:rgb(0%,0%,54.499817%);fill-opacity:1;">
  <use xlink:href="#glyph0-1" x="75.027" y="99.534"/>
</g>
<g style="fill:rgb(0%,0%,54.499817%);fill-opacity:1;">
  <use xlink:href="#glyph1-2" x="83.666" y="101.686"/>
</g>
<g style="fill:rgb(0%,0%,54.499817%);fill-opacity:1;">
  <use xlink:href="#glyph0-1" x="152.476" y="31.889"/>
</g>
<g style="fill:rgb(0%,0%,54.499817%);fill-opacity:1;">
  <use xlink:href="#glyph1-3" x="161.115" y="34.041"/>
</g>
<g style="fill:rgb(0%,0%,54.499817%);fill-opacity:1;">
  <use xlink:href="#glyph0-1" x="204.435" y="98.064"/>
</g>
<g style="fill:rgb(0%,0%,54.499817%);fill-opacity:1;">
  <use xlink:href="#glyph1-4" x="213.074" y="100.216"/>
</g>
</g>
</svg>
